X:2410
T:The Campbells Are Coming
P:A Quick step by the Duke of Gordon
C:Petrie's 3rd Coll.
R:Jig (nx32)
B:RSCDS 24-10
Z:Anselm Lingnau <anselm@strathspey.org>
M:6/8
L:1/8
K:Bb
|:B/c/|"Bb"dBd dBd|"F"cAF F2 B/c/|"Bb"dBd dBd|"F7"c3 F2 B/c/|
       "Bb"dBd dBd|"F"cAF "Bb"F2B|"C"Ged "F7"cBA|"Bb"B3 B2:|
|:d/e/|"Bb"fdB fdB|"Eb"gab "F7"f3|"Bb"fdB fdB|"F"cAF "F7"F2d/e/|
       "Bb"fdB fdB|"Eb"gab "Bb"f2e|"Bb"dfB "F7"ceA|"Bb"BBB B2:|
